X: 37478
T: Sliding Down The Bannister
R: jig
M: 6/8
K: Dmajor
|:D2 A d2 f|edc BGE|D2 A d2 f|ged cBA|
DFA d2 f|efe cBA|gfe cBA|dBc d2A:|
|:e2 c dcB|GBd cBA|e2 c dcB|fff d2A|
e2 c dcB|GBd cBA|e2 c dcB|a3 d3:|

